X: 2003
T: Saraband.
%R: saraband
B: Henry Playford "Apollo's Banquet", London 1687 (5th Edition)
F: https://archive.org/details/apollosbanquetco01rugg
Z: 2017 John Chambers <jc:trillian.mit.edu>
M: 3/4
L: 1/8
K: G
% - - - - - - - - - -
|:\
g2d3d | e2e3f | g2B3A | A4G2 |\
g2f3e | =f2e3e | a2^c3f | e4d2 :|
|:\
a2a3b | f2g3g | a2b3g | f4e2 |\
d2^c3B | B2e2a2 | f2g3b | a4g2 |]
% - - - - - - - - - -

%%sep 1 1 500
%%sep 1 1 500

